X: 13
T: Abbey, The
Z: UPipes & harp
S: https://thesession.org/tunes/477#setting50270
R: reel
M: 4/4
L: 1/8
K: Ador
A2 AB ~A2 GE|~A2 GA BddB|~A2 AB AGED|GFGA BddB|
A2 AB ~A2 GE|~A2 GA BddB|~A2 AB AGED|GFGA Bddg||
eg ~g2 a2 ba|gabg ageg|degb a2 ga|bgef ge d2|
eg ~g2 agbg|agbg ageg|degb a2 ga|bgef gedB||

